src/assets/image/icons/efficiency.svg

<svg width="63" height="63" viewBox="0 0 63 63" fill="none" xmlns="http://www.w3.org/2000/svg">
<path d="M24.6094 35.4375V32.4844H26.5781V30.5156H28.5469V32.6655C29.6897 33.073 30.5156 34.1558 30.5156 35.4375H28.5469C28.5469 34.8941 28.1059 34.4531 27.5625 34.4531H26.5781V35.4375C26.5781 35.9809 27.0191 36.4219 27.5625 36.4219C29.1907 36.4219 30.5156 37.7468 30.5156 39.375V42.3281H28.5469V44.2969H26.5781V42.147C25.4353 41.7395 24.6094 40.6567 24.6094 39.375H26.5781C26.5781 39.9184 27.0191 40.3594 27.5625 40.3594H28.5469V39.375C28.5469 38.8316 28.1059 38.3906 27.5625 38.3906C25.9343 38.3906 24.6094 37.0657 24.6094 35.4375ZM0.984375 58.0781H2.95312V56.1094H0.984375V58.0781ZM6.89062 56.1094H4.92188V58.0781H6.89062V56.1094ZM10.8281 58.0781V56.1094H8.85938V58.0781H10.8281ZM4.92188 50.2031H2.95312V52.1719H4.92188V50.2031ZM8.63986 15.5354C6.41222 14.1425 4.92188 11.6747 4.92188 8.85938C4.92188 4.5173 8.4548 0.984375 12.7969 0.984375C17.139 0.984375 20.6719 4.5173 20.6719 8.85938C20.6719 11.6747 19.1815 14.1425 16.9539 15.5354C18.3517 16.064 19.6215 16.8476 20.7093 17.8329C22.9507 17.1153 25.2512 16.7344 27.5625 16.7344C39.504 16.7344 49.2188 26.0082 49.2188 37.4062C49.2188 42.2356 47.4695 46.68 44.5508 50.2031H49.2188V46.495L61.9595 54.1406L49.2188 61.7863V58.0781H12.7969V56.1094H27.5625C38.4182 56.1094 47.25 47.7195 47.25 37.4062C47.25 27.093 38.4182 18.7031 27.5625 18.7031C25.7552 18.7031 23.9548 18.9571 22.1868 19.4404C23.0098 20.5203 23.6614 21.738 24.0749 23.0629C25.2177 22.7853 26.3872 22.6406 27.5625 22.6406C35.7043 22.6406 42.3281 29.2645 42.3281 37.4062C42.3281 45.548 35.7043 52.1719 27.5625 52.1719H6.89062V50.2031H10.5643C7.55114 46.5688 5.90625 42.1047 5.90625 37.4062C5.90625 35.7417 6.12281 34.0928 6.53428 32.4844H0.984375V26.5781C0.984375 21.5293 4.17375 17.2226 8.63986 15.5354ZM42.6982 52.1719C40.9766 53.7803 38.9773 55.1171 36.7753 56.1094H51.1875V58.3075L58.1342 54.1406L51.1875 49.9738V52.1719H42.6982ZM20.2269 50.2031C15.7943 47.6526 12.7969 42.8774 12.7969 37.4062C12.7969 35.719 13.0902 34.0702 13.6582 32.4844H8.5808C8.12109 34.0879 7.875 35.7387 7.875 37.4062C7.875 42.1982 9.77977 46.7224 13.2251 50.2031H20.2269ZM24.4893 24.9893C24.5602 25.5111 24.6094 26.0377 24.6094 26.5781V27.0024C25.5682 26.7287 26.5545 26.5781 27.5625 26.5781C33.5327 26.5781 38.3906 31.436 38.3906 37.4062C38.3906 43.3765 33.5327 48.2344 27.5625 48.2344C21.5923 48.2344 16.7344 43.3765 16.7344 37.4062C16.7344 35.6738 17.1449 34.0023 17.9274 32.4844H15.7835C15.12 34.0604 14.7656 35.7102 14.7656 37.4062C14.7656 44.4622 20.5065 50.2031 27.5625 50.2031C34.6185 50.2031 40.3594 44.4622 40.3594 37.4062C40.3594 30.3503 34.6185 24.6094 27.5625 24.6094C26.526 24.6094 25.4973 24.7403 24.4893 24.9893ZM20.2161 32.4844C19.2288 33.9491 18.7031 35.6393 18.7031 37.4062C18.7031 42.2917 22.677 46.2656 27.5625 46.2656C32.448 46.2656 36.4219 42.2917 36.4219 37.4062C36.4219 32.5208 32.448 28.5469 27.5625 28.5469C26.5486 28.5469 25.5603 28.728 24.6094 29.0656V32.4844H20.2161ZM12.9937 16.7442C12.9278 16.7432 12.8628 16.7344 12.7969 16.7344C12.7309 16.7344 12.666 16.7432 12.6 16.7442L10.9216 24.2954L12.7969 26.1706L14.6711 24.2954L12.9937 16.7442ZM12.7969 14.7656C16.0542 14.7656 18.7031 12.1167 18.7031 8.85938C18.7031 5.60208 16.0542 2.95312 12.7969 2.95312C9.53958 2.95312 6.89062 5.60208 6.89062 8.85938C6.89062 12.1167 9.53958 14.7656 12.7969 14.7656ZM2.95312 26.5781V30.5156H5.90625V24.6094H7.875V30.5156H17.7188V24.6094H19.6875V30.5156H22.6406V26.5781C22.6406 21.9338 19.404 18.0397 15.0698 17.01L16.8279 24.9234L12.7969 28.9544L8.76488 24.9234L10.523 17.01C6.18975 18.0397 2.95312 21.9338 2.95312 26.5781ZM62.0156 7.875V11.8125C62.0156 15.6112 58.9237 18.7031 55.125 18.7031H38.3906V7.875C38.3906 4.0763 41.4825 0.984375 45.2812 0.984375H55.125C58.9237 0.984375 62.0156 4.0763 62.0156 7.875ZM60.0469 7.875C60.0469 5.16108 57.8389 2.95312 55.125 2.95312H45.2812C42.5673 2.95312 40.3594 5.16108 40.3594 7.875V16.7344H55.125C57.8389 16.7344 60.0469 14.5264 60.0469 11.8125V7.875ZM44.2969 4.92188H42.3281V6.89062H44.2969V4.92188ZM48.2344 4.92188H46.2656V6.89062H48.2344V4.92188ZM50.2031 6.89062H58.0781V4.92188H50.2031V6.89062ZM42.3281 10.8281H58.0781V8.85938H42.3281V10.8281ZM42.3281 14.7656H58.0781V12.7969H42.3281V14.7656Z" fill="url(#paint0_linear_43_2135)"/>
<defs>
<linearGradient id="paint0_linear_43_2135" x1="31.5" y1="61.7863" x2="31.5" y2="0.984375" gradientUnits="userSpaceOnUse">
<stop stop-color="#6582FD"/>
<stop offset="1" stop-color="#E13E91"/>
</linearGradient>
</defs>
</svg>

<svg xmlns="http://www.w3.org/2000/svg" width="63" height="63" fill="none"><path fill="url(#a)" d="M24.61 35.438v-2.954h1.968v-1.968h1.969v2.15a2.95 2.95 0 0 1 1.969 2.772h-1.97a.985.985 0 0 0-.983-.985h-.985v.984c0 .544.441.985.985.985a2.957 2.957 0 0 1 2.953 2.953v2.953h-1.97v1.969h-1.968v-2.15a2.95 2.95 0 0 1-1.969-2.772h1.97c0 .543.44.984.983.984h.985v-.984a.985.985 0 0 0-.985-.984 2.957 2.957 0 0 1-2.953-2.953M.983 58.078h1.97V56.11H.983zm5.907-1.969H4.92v1.97h1.97zm3.937 1.97v-1.97H8.86v1.97zm-5.906-7.876H2.953v1.969h1.969zM8.64 15.535c-2.228-1.392-3.718-3.86-3.718-6.676 0-4.342 3.533-7.875 7.875-7.875s7.875 3.533 7.875 7.875c0 2.816-1.49 5.284-3.718 6.676a11.8 11.8 0 0 1 3.755 2.298c2.242-.718 4.542-1.099 6.854-1.099 11.941 0 21.656 9.274 21.656 20.672 0 4.83-1.75 9.274-4.668 12.797h4.668v-3.708l12.74 7.646-12.74 7.645v-3.708H12.797V56.11h14.766c10.855 0 19.687-8.39 19.687-18.703s-8.832-18.703-19.687-18.703a20.4 20.4 0 0 0-5.376.737 11.8 11.8 0 0 1 1.888 3.623 14.8 14.8 0 0 1 3.488-.422c8.141 0 14.765 6.624 14.765 14.765s-6.624 14.766-14.766 14.766H6.892v-1.969h3.673c-3.013-3.634-4.658-8.098-4.658-12.797 0-1.664.217-3.313.628-4.922H.984v-5.906c0-5.049 3.19-9.355 7.656-11.043m34.058 36.637a21.8 21.8 0 0 1-5.923 3.937h14.413v2.198l6.946-4.166-6.946-4.167v2.198zm-22.471-1.969c-4.433-2.55-7.43-7.326-7.43-12.797 0-1.687.293-3.336.861-4.922H8.581a17.8 17.8 0 0 0-.706 4.922c0 4.792 1.905 9.316 5.35 12.797zm4.262-25.214c.071.522.12 1.049.12 1.59v.423a10.7 10.7 0 0 1 2.953-.424c5.97 0 10.829 4.858 10.829 10.828s-4.858 10.828-10.828 10.828-10.829-4.858-10.829-10.828c0-1.732.41-3.404 1.193-4.922h-2.143c-.664 1.576-1.018 3.226-1.018 4.922 0 7.056 5.74 12.797 12.797 12.797 7.055 0 12.796-5.74 12.796-12.797 0-7.056-5.74-12.797-12.797-12.797a12.8 12.8 0 0 0-3.073.38m-4.273 7.495a8.75 8.75 0 0 0-1.513 4.922c0 4.886 3.974 8.86 8.86 8.86s8.859-3.974 8.859-8.86-3.974-8.86-8.86-8.86a8.8 8.8 0 0 0-2.953.52v3.418zm-7.222-15.74c-.066 0-.131-.01-.197-.01s-.131.01-.197.01l-1.678 7.551 1.875 1.876 1.874-1.876zm-.197-1.978a5.91 5.91 0 0 0 5.906-5.907 5.91 5.91 0 0 0-5.906-5.906A5.91 5.91 0 0 0 6.89 8.86a5.91 5.91 0 0 0 5.906 5.907M2.953 26.578v3.938h2.953v-5.907h1.969v5.907h9.844v-5.907h1.968v5.907h2.954v-3.938c0-4.644-3.237-8.538-7.571-9.568l1.758 7.913-4.031 4.031-4.032-4.03 1.758-7.914c-4.333 1.03-7.57 4.924-7.57 9.568M62.016 7.875v3.938a6.9 6.9 0 0 1-6.891 6.89H38.391V7.875a6.9 6.9 0 0 1 6.89-6.89h9.844a6.9 6.9 0 0 1 6.89 6.89m-1.97 0a4.93 4.93 0 0 0-4.921-4.922h-9.844a4.927 4.927 0 0 0-4.922 4.922v8.86h14.766a4.93 4.93 0 0 0 4.922-4.922zm-15.75-2.953h-1.968V6.89h1.969zm3.938 0h-1.968V6.89h1.968zm1.97 1.969h7.874V4.92h-7.875zm-7.876 3.937h15.75V8.86h-15.75zm0 3.938h15.75v-1.97h-15.75z"/><defs><linearGradient id="a" x1="31.5" x2="31.5" y1="61.786" y2=".984" gradientUnits="userSpaceOnUse"><stop stop-color="#6582FD"/><stop offset="1" stop-color="#E13E91"/></linearGradient></defs></svg>
